X:1
T:7 Lieder
T:Like to the Damask Rose
T:7 Lieder
T:Edward Elgar
T:1. Like to the Damask Rose Gleich wie der roten Rose Pracht 
T:Simon Wastell German Lyrics by Ed. Sachs 
T:Creative Commons copyright waiver (CC0 1.0 Universal)
T:Creative Commons copyright waiver (CC0 1.0 Universal)
T:Creative Commons copyright waiver (CC0 1.0 Universal)
T:Creative Commons copyright waiver (CC0 1.0 Universal)
T:Creative Commons copyright waiver (CC0 1.0 Universal)
T:Creative Commons copyright waiver (CC0 1.0 Universal)
C:Edward Elgar
Z:Simon Wastell
Z:Creative Commons copyright waiver (CC0 1.0 Universal)
%%score ( 1 2 ) { ( 3 4 ) | ( 5 6 ) }
L:1/8
Q:1/4=144
M:4/4
K:Bb
V:1 treble nm="Oboe"
V:2 treble 
V:3 treble nm="Piano"
V:4 treble 
V:5 bass 
V:6 bass 
V:1
"^Allegro" z8 | z8 |"^." z8 | z8 | z8 |"^affrettando"[Q:1/4=150] D2 D D E!<(! E3 | %6
w: |||||Like to the da- mask|
w: |||||Gleich wie der ro- ten|
 G3!<)! G !breath!^F2 F2 |"^cresc." G3 G A!<(! A2 A!<)! | c3 c !breath!B2!p! B2 | (B3 E) E2 D2 | %10
w: rose you see, Or|like a blos- som *|on a tree, Or|like a dain- ty|
w: Ro- se Pracht, Und|gleich der Blüt' die am|Zwei- ge lacht, Gleich|wie die Blu- me|
 G3 G !breath!G2"^cresc." G2 |!<(! G3 B!<)! d3/2 d/ d3/2 A/ | %12
w: flow'r of May, Or|like the morn- ing of the|
w: bei dem Hag, Gleich|wie der Mor- gen von dem|
 B4- !breath!B!f!"^allargando"[Q:1/4=140]!<(! B B3/2 B/!<)! |!>(! e4-!>)! e!p! G G3/2 G/ | %14
w: day,  _ Or like the|sun,  _ or like the|
w: Tag,  _ Gleich wie die|Sonn',  _ dem Schat- ten|
 c4- !breath!c[Q:1/4=148]"^cresc.  e  stringendo" E E E |!<(! _A6!<)! G2 | %16
w: shade,  _ Or like the|gourd which|
w: gleich,  _ Und wie die|Wel- le|
!f!!<(! (^F2 e2 d2)!<)!!ff! c2 |[Q:1/4=136]"^dim.  e   rit." !breath!d2 G2 B2 A2 | %18
w: Jo- * * nas|had, E'en such is|
w: auf  _ _ dem|Teich: So, Mensch, bist|
 G4 z2!p!"^tranquillo" A2 | A6 d2 | (d4 =B2) G2 |!<(! (=E4!<)! ^F2) F2 | %22
w: man ‒‒ whose|thread is|spun,  _ Drawn|out  _ and|
w: du, dess|Fa- den|spann  _ der|Par- * ze|
 !breath!G6"^rit.   dolce"[Q:1/4=130] d2 | (c2[Q:1/4=126]!>(! =B2 =E!>)!G) (!fermata!BA) | %24
w: cut, and|so  _ _ _ is *|
w: Hand, dess|Zeit  _ _ _ ver- *|
"^più lento"[Q:1/4=130] G4 z2 z!p! G | G4 ^F !breath!F2 F |!<(! ^E3!<)!!mf! =B!>(! B2!>)!!p! E2 | %27
w: done. The|rose with- ers the|blos- som blast- eth,|
w: \- ran. Die|Ro- se stirbt, die|Blüt' nicht wei- let,|
!pp! z"^rit."[Q:1/4=126] ^F!<(! F F!<)!!>(! !breath!^G3!>)!!p! F | (^E3 =B) B2 !breath!B!mf! B | %29
w: The flo- wer fades, the|morn- ing hast- eth, The|
w: Die Blu- me welkt, der|Mor- gen ei- let, Die|
"^stringendo"[Q:1/4=140]!<(! =e4!<)!!f! =E3 E |!>(! =B2 A2!>)! =E2 z!p! C | %31
w: sun sets, the|shad- ow flies, The|
w: Son    \-   ne  sinkt, der|Schat- ten flieht, Die|
"^ad lib." =B,3 D !fermata!D2 z!pp! D | !fermata!D6 D2 | !>!D8 | z8 | z8 | z8 ||[M:2/4] z4 || %38
w: gourd con- sumes ‒‒ the|man he|dies!|||||
w: Wel- le schmilzt, der|Mensch ver-|\- geht.|||||
[M:4/4]"^affrettando"!mf![Q:1/4=146] D2 D D E3 E | G3 G ^F3 F |"^cresc." G3 G A3 A | %41
w: Like to the grass that's|new- ly sprung, Or|like a tale that's|
w: Gleich wie des Gra- ses|neu- es Blatt, Der|Tat gleich, die be-|
 c3 c !breath!B2!p! B2 | B3 E E2 D2 | G3 G !breath!G2"^cresc." G2 | G3 B d d d3/2 A/ | %45
w: new be- gun, Or|like a bird that's|here to- day, Or|like the pearl- ed dew of|
w: gon- nen hat, Und|gleich dem Vo- gel|auf der Au, Dem|Tro- pfen gleich von Mai- en-|
 B4- !breath!B"^allargando"!mf! !tenuto!B[Q:1/4=140] !tenuto!B3/2 B/ | e4- e G"^cresc." G G | %47
w: May,  _ Or like an|hour,  _ or like a|
w: \- tau,  _ Der Span- ne|Zeit,  _ der Stun- de|
!>(! c4-!>)! !breath!c!p! E E E |"^dolciss." (_A2 G2 F2) E2 |!<(! (D2 c2!<)!!mf! B2) _A2 | %50
w: span,  _ Or like the|sing- * * ing|of  _ _ a|
w: gleich,   _ Des Schwa- nes|Sin- * * gen|auf  _ _ dem|
 !breath!B2[Q:1/4=134]"^dim.  e  rit." !tenuto!E2 !tenuto!G2 F2 | E4 z2!p! E2 | %52
w: swan, E'en such is|man ‒‒ who|
w: Teich: So, Mensch, bist|du: dess|
"^tranquillo" F6 B2 |!pp! (B4 !breath!G2) E2 | (C4 D2) D2 |"^rit." !breath!E6[Q:1/4=128] B2 | %56
w: lives by|breath,  _ Is|here,  _ now|there, in|
w: Feu- er|sprüht,  _ Dess|Feu- * er|sinkt, bis|
"^dolce"!>(! (_A2[Q:1/4=122] G2 C!>)!E)!pp! (!fermata!GF) |"^più lento"[Q:1/4=130] E4 z2 z E | %58
w: life  _ _ _ and *|death. The|
w: es  _ _ _ ver- *|glüht. Das|
 E4 D D2 D |!<(! ^C3!<)!!mf! G!>(! G2!>)!!p! !breath!C2 | %60
w: grass with- ers, the|tale is end- ed,|
w: Gras ist welk, die|Tat be- gan- gen,|
!pp! z"^rit."[Q:1/4=124]!<(! !tenuto!D !tenuto!D !tenuto!D!<)!!>(! !breath!=E3!>)!!pp! D | %61
w: The bird is flown, the|
w: Der Vo- gel stumm, der|
 ^C3"^cresc." G G2!<(! !breath!G!<)! G |"^a tempo"[Q:1/4=144] D3 D"^stringendo   e" E3 E | %63
w: dew's as- cend- ed; The|hour is short, the|
w: Tau ver- gan- gen, Die|Spann' ist kurz, die|
 G3 G !breath!^F3 F |"^presto"[Q:1/4=152] G3!<(! G!<)! A3 A |!<(! c3 c!<)! !breath!.B2 !tenuto!B2 | %66
w: span not long; The|hour is short, the|span not long; The|
w: Stund' nicht lang, Die|Spann' ist kurz, die|Stund' nicht lang, Der|
!ff!"^rit."[Q:1/4=138] e6 E2 | (B2 _A2"^ad lib." !breath!E2) C2 | %68
w: swan's near|death,  _ _ Man's|
w: Schwan  er|stirbt;  _ _ Der|
 (B,2 !fermata!D4)!<(! ((D2{G,))}!<)! |[Q:1/4=144]!>(! G,8!>)! | z8 | z8 | !fermata!z8 |] %73
w: life * is|done!||||
w: Mensch * ver-|geht!||||
V:2
 x8 | x8 | x8 | x8 | x8 | x8 | x8 | x5 A3 | x8 | x8 | x8 | x8 | x8 | x8 | x8 | x8 | x8 | x8 | x8 | %19
 x8 | x8 | x8 | x8 | x8 | x8 | G3 G ^F3 F | x8 | x8 | x8 | =e2 e2 x4 | x8 | x8 | x8 | x8 | x8 | %35
 x8 | x8 ||[M:2/4] x4 ||[M:4/4] x8 | x8 | x8 | x8 | x8 | x8 | x8 | x8 | x8 | x8 | x8 | x8 | %50
 G2 B,2 x4 | x8 | x8 | (!fermata!e4 B2) x2 | x8 | x8 | x8 | x8 | E3 E D3 D | x8 | x8 | x8 | x8 | %63
 x8 | x8 | x8 | x8 | x8 | x6 D2{G} | G8 | x8 | x8 | x8 |] %73
V:3
!f!"_risoluto" !wedge![gbg']2 (^f2 g2) (c'/b/)(a/b/) | g2 !^![Dd]4 GD | %2
 G z/ .D/ !>![B,G]!>![DA] ([GB][Bd]) ([ce]>[eg]) | %3
 !wedge![db] z/!ff! !2![^Fd]/!<(! !>![Gdg]!>![A^fa] !>![Bgb][dbd']!<)! [ec'e']>!2!g' | %4
 !wedge![bb']2!>(! [G,B,D][G,B,D] [G,B,D][G,B,D][G,B,D]!>)![G,B,D] | %5
 [G,B,D][G,B,D][G,B,D][G,B,D] [G,B,E][G,B,E][G,B,E][G,B,E] | %6
 [CEG][CEG][CEG][CEG] [CD^F][CDF][CDF][CDF] | %7
"_cresc." [B,DG][B,DG][B,DG]!<(![B,DG] [EGA][EGA][EGA][EGA]!<)! | %8
!>(! [D^Fc][DFc][DFc][DFc] [DGB]!>)![DGB]!p! [DGB][DGB] | %9
 [B,EB][B,EB][B,EB][B,E] [_A,B,E][A,B,E] [A,B,D][A,B,D] | %10
 [G,B,G][G,B,G][G,B,G][G,B,G]"_cresc." [G,B,G][G,B,G][G,B,G][G,B,G] | %11
 [B,DG][B,DG][B,DG][B,DG] [A,DG][A,DG] [A,D^F][A,DF] | %12
 [B,DB][B,DB][B,DB][B,DB]!<(! [B,DB]"_collo voce"[B,DB][B,D_AB]!<)![B,DAB] | %13
!f!!>(! (e6!>)!!p! G2) | (c6 E2) |!<(! [CE_A][CEA][CEA][CEA] [CEA][CEA] [CEG]!<)![CEG] | %16
!f! [CE^F]2 [EFe]2 [DGd]2 [CGc]2 |"_colla voce" [DGBd]4 z2!p! [CD^F]2 | (G8 | ^F8 | G6) (G2 | %21
!<(! A6 d2!<)! |!>(! d4 =B2)!>)!"_colla     voce" G2 | ([Cc]2 [D=B]2 [C=E]2 !fermata![C^F]2) | %24
 [=B,G][B,DG][B,DG][B,DG] [B,DG][B,DG][B,DG][B,DG] | %25
 [=B,DG][B,DG][B,DG][B,DG] [B,D^F][B,DF][B,DF][B,DF] | %26
!<(! [=B,D^E][B,DE][B,DE]!<)![B,D=B]!>(! [B,DB][B,DB] [B,DE]!>)![B,DE] | %27
!pp!"_colla voce" [=B,^D^F][B,DF][B,DF][B,DF] [^A,^C^G][A,CG][B,G][B,F] | [=B,=F]4- [B,F]4 | %29
 [=Ec=e][Ece][E=Bd][EBd]!<(! [EAc][EAc] [E^G]!<)![EG] |!>(! (=B2 A2 =E2!>)! C2) | %31
 [G,=B,]4 !fermata!z2!<(! (d2!<)! |!>(! c2 _B2!>)! !fermata!A2) z2 | %33
!pp! !wedge![gbg']2 (^f2 g2) (c'/b/)(a/b/) | g2 !^![Dd]4 GD | %35
 G z/!f! D/ !>![B,G]!>![DA] ([GB][Bd]) ([ce]>[eg]) | %36
 !wedge![db] z/!ff! !2![^Fd-]/ !>![Gdg]!>![A^fa] !>![Bgb][dbd']!<(! !^![ec'e']>!2!g'!<)! || %37
[M:2/4] [bb']2!>(! [G,B,D]!>)![G,B,D] || %38
[M:4/4]!mf! [G,B,D][G,B,D][G,B,D][G,B,D] [G,B,E][G,B,E][G,B,E][G,B,E] | %39
 [CEG][CEG][CEG][CEG] [CD^F][CDF][CDF][CDF] | %40
"_cresc." [B,DG][B,DG]!<(![B,DG][B,DG] [EGA][EGA][EGA]!<)![EGA] | %41
 [D^Fc]!>(![DFc][DFc][DFc] [DGB]!>)![DGB]!p![DGB][DGB] | %42
 [B,EB][B,EB][B,EB][B,E] [_A,B,E][A,B,E] [A,B,D][A,B,D] | %43
 [G,B,G][G,B,G][G,B,G][G,=B,G] [G,CG][G,CG]"_cresc."[G,^CG][G,CG] | %44
 [_B,DG][B,DG][B,DG][B,DG] [A,DG][A,DG] [A,D^F][A,DF] | %45
 [B,DB][B,DB][B,DB][B,DB] [B,DB]"_collo voce" [B,DB][B,D_AB][B,DAB] | (e6"_cresc." G2) | %47
 (c6!pp! E2) | (_A2 G2 F2 E2 |!<(! D2 [D_Ac]2!<)!!>(! [EB]2!>)! [_A,EA]2 | %50
"_colla voce" [B,EG]2) z2 z2!p! [_A,B,D]2 | E8 | D8 | E6 E2 |!<(! (F6!<)! B2) | %55
!>(! (B4!>)! G2) E2 | ([_A,_A]2 [B,G]2 [A,C]2 !fermata![A,D]2) | %57
 [G,E][G,B,E][G,B,E][G,B,E] [G,B,E][G,B,E][G,B,E][G,B,E] | %58
 [G,B,E][G,B,E][G,B,E][G,B,E] [G,B,D][G,B,D][G,B,D][G,B,D] | %59
!p! [G,B,^C][G,B,C][G,B,C][G,B,G] [G,B,G][G,B,G] [G,B,C][G,B,C] | %60
!pp! [G,=B,D]"_rit."!<(![G,B,D][G,B,D]!<)![G,B,D]!>(! [^F,A,=E][F,A,E][G,E]!>)![G,D] | %61
"_colla voce" [G,^C]4- [G,C]4 | %62
"_a tempo" [G,B,D][G,B,D][G,B,D][G,B,D]"_stringendo  e" [G,B,E][G,B,E][G,B,E][G,B,E] | %63
 [B,EG][B,EG][B,EG][B,EG] [A,D^F][A,DF][A,DF][CDF] |"_presto" [B,DG]2 z!<(! (G- [CGA]2) z!<)! A- | %65
!<(! [D^FAc]2 z c .[DGB]2!<)! !tenuto![D_AB]2 |!ff!"_colla voce" !^![EGe]4 !^![B,EG]4 | %67
 [B,E-B]2 [_A,E_A]6 |!p! .[B,DG]2 z2 .[CD^F]2 !fermata!z2 | %69
 z3/2!pp!"^a tempo" D/ .[B,G].[DA] .[GB].[Bd] (!>!f>e | %70
 d) z/!ff! [^Fd-]/ !>![Gdg]!>![A^fa] !>![Bgb][dd'] d'>c' | %71
 !wedge![gbg']2 z2 [Bdb]2 z3/2!ff!!<(![I:staff +1] (D,/4B,,/4!<)! | %72
 !wedge![G,,,G,,]2)[I:staff -1] z2 !fermata!z4 |] %73
V:4
 x2 !^![dd']4 [cg][cd] | B2 (^F2 G2) (c/B/)(A/B/) | x8 | x8 | x8 | x8 | x8 | x8 | x8 | x8 | x8 | %11
 x8 | x8 | [EG]2 [E-_A]2 [EG]2 F2 | E2!>(! [C-F]2!>)!"_cresc.  e  stringendo" [CE]2 _D2 | x8 | x8 | %17
 x8 | z D"_tranquillo"=B,D B,DB,D | CDCD CDCD | =B,DB,D B,DB,D | C=ECE CDAD | =BDGD GD =B,2 | %23
 =E^F G2 x4 | x8 | x8 | x8 | x8 | x8 | x8 | [C=E]4 C2 A,2 | x6 G2 | G4 D2 x2 | %33
 x2 !^![dd']4 [cg][cd] | B2 (^F2 G2) (c/B/)(A/B/) | x8 | x8 ||[M:2/4] x4 ||[M:4/4] x8 | x8 | x8 | %41
 x8 | x8 | x8 | x8 | x8 | [EG]2 [E-_A]2 [EG]2 F2 | E2!>(! [C-F]2 [CE]2!>)! _D2 | CECE FCEC | %49
 C2 x6 | x8 | (G,B,G,B, G,B,G,B, | _A,B,A,B, A,B,A,B,) | (G,B,G,B, G,B,G,B,) | (_A,CA,C A,B,FB,) | %55
 (G"_colla voce"B,EB, EB,) G,2 | C!>(!D E2 x2!>)! x2 | x8 | x8 | x8 | x8 | x8 | x8 | x8 | x8 | x8 | %66
 x8 | x8 | x8 | x6 [Gc]2 | G x5 [^f^f']2 | x4 !arpeggio![G,DG]2 x2 | x8 |] %73
V:5
 .[G,,,G,,].[B,,,B,,].[A,,,A,,].[C,,C,] .[B,,,B,,].[D,,D,].[E,,E,].[^F,,^F,] | %1
 .[G,,G,].[B,,B,].[A,,A,].[C,C] .[B,,B,].[D,D].[E,E].[^F,^F] | %2
 G, z/ .D,/ !>![B,,G,]!>![D,A,] [G,B,] z [C,G,C]2 | %3
 !wedge![G,,G,] z/ ((.[C,C]/ !>![B,,B,]))!>![A,,A,] !>![G,,G,] z [C,,C,]2 | %4
!ped! !wedge![G,,,G,,]2 z2 z4!ped-up! |"_marcato"{/G,,} !>!D,4{/G,,} !>!E,4 | %6
{/A,,} !>!G,4{/A,,} !>!^F,4 |{/B,,} !>!G,4{/C,} !>!A,4 |{/D,} !>!C4{/G,} !>!B,2 z2 | (G,,4 F,,4 | %10
 E,,6) [E,,E,]2 | [D,,D,]8 | [G,,D,]6 [F,,F,]2 | (E,2 C2 B,2 =B,2) | C2 (_A,2 G,2) G,2 | %15
 [_A,,_A,]6 [_A,,,A,,]2 | [=A,,,=A,,]2 [C,,C,]2 [B,,,B,,]2 [E,,E,]2 | [D,,D,]4 z2 D,2 | [G,,D,]8 | %19
 [G,,D,]8 | D,6 (G,2 | =E,4 ^F,4 | G,6) G,,2 | (A,,2 =B,,2 C,2 !fermata!D,2) |"^più lento" G,4 z4 | %25
 z8 | (([G,,,G,,]8 | [^F,,,^F,,]2)) ^F,2 =E,2 ^D,2 | D,4- D,2 G,2 | %29
!mf!"^stringendo" (G,2 ^G,2 A,2 D2) | [C,,C,]8 | [D,,D,]4 !fermata!z2!pp! =B,2 | %32
 [_E,C]2 [=E,^C]2 [^F,D]2 z2 | %33
 .[G,,,G,,].[B,,,B,,].[A,,,A,,].[C,,C,] .[B,,,B,,].[D,,D,].[_E,,_E,].[^F,,^F,] | %34
 .[G,,G,].[B,,B,].[A,,A,].[C,C] .[B,,B,].[D,D].[E,E].[^F,^F] | %35
 G, z/ D,/ !>![B,,G,]!>![D,A,] [G,B,] z [C,G,C]2 | %36
 !wedge![G,,G,] z/ [C,C]/ !>![B,,B,]!>![A,,A,] [G,,G,] z !^![C,,C,]2 ||[M:2/4] [G,,,G,,]2 z2 || %38
[M:4/4]{/G,,} !>!D,4{/G,,} !>!E,4 |{/A,,} !>!G,4{/A,,} !>!^F,4 |{/B,,} !>!G,4{/C,} !>!A,4 | %41
{/D,} !>!C4{/G,} !>!B,2 z2 | (G,,4 F,,4 | E,,6) [E,,E,]2 | [D,,D,]8 | [G,,D,]6 [F,,F,]2 | %46
 E,2!>(! (C2!>)! B,2) =B,2 | C2 (_A,2 G,2) G,2 | _A,2 G,2 F,2 E,2 | D,2 [F,,F,]2 [G,,G,]2 C,2 | %50
 B,,2 z2 z2 B,,2 | [E,,B,,]8 | [E,,B,,]8 | B,,6 (E,2 | (C,4) D,4 | E,6) E,,2 | %56
 (F,,2 G,,2 _A,,2 !fermata!B,,2) |"^più lento" E,2 z2 z4 | z8 | (([E,,,E,,]8 | %60
 [D,,,D,,]2)) (D,2 C,2 =B,,2) | _B,,4- B,,4 | (!//-!D,,2 D,2) (!//-!D,,2 D,2) | %63
 (!//-!D,,2 D,2) (!//-!D,,2 D,2) | (!//-!D,,2 D,2) (!//-!D,,2 D,2) | %65
 (!//-!D,,2 D,2) .[G,,G,]2 !tenuto![=F,,=F,]2 | !^![E,,E,]4 !^![_D,,_D,]4 | [C,,C,]8 | %68
 .[D,,D,]2 z2 .D,2 !fermata!z2 | z3/2 D,/ .[B,,G,].[D,A,] .[G,B,] z !>![C,G,C]2 | %70
 [G,B,] z/ [C,C]/ !>![B,,B,]!>![A,,A,] !>![G,,G,] z [D,,D,]2 | %71
!ped! !wedge![G,,,G,,]2 z2 x2 z3/2 x/ | x8!ped-up! |] %73
V:6
 x8 | x8 | x8 | x8 | x8 | x8 | x8 | x8 | x8 | x8 | x8 | x8 | x8 |{/E,,} E,6 D,2 | C,6 B,,2 | x8 | %16
 x8 | x8 | x8 | x8 | G,,8 | G,,8 | G,,6 x2 | x8 | x8 | x8 | x8 | x8 | =D,4 G,,2 G,,2 | C,8 | x8 | %31
 x6 D,2 | D,4- !fermata!D,2 x2 | x8 | x8 | x8 | x8 ||[M:2/4] x4 ||[M:4/4] x8 | x8 | x8 | x8 | x8 | %43
 x8 | x8 | x8 |{/E,,} E,6 D,2 | C,6 B,,2 | _A,,8- | A,,2 x6 | x8 | x8 | x8 | E,,8 | E,,8 | %55
 E,,6 x2 | x8 | x8 | x8 | x8 | x8 | B,,4 E,,4 | x8 | x8 | x8 | x8 | x8 | x8 | x8 | x8 | x8 | x8 | %72
 x8 |] %73

